X: 305596
M: 6/8
L: 1/8
K: D
(A/G/) |\
|: f/g/ |\
afd dcB | ABA A2A | gab afd | cee e2 f/g/ |\
afd cBe | dce a2g | fga gec | ddd d2 :|


